X: 24
T: Cassino Minuet
%R: minuet
B: Straight & Skillern "Minuets for the year 1777", p.24
F: http://www.vwml.org/browse/browse-collections-dance-tune-books/browse-straight1777
Z: 2014 John Chambers <jc:trillian.mit.edu>
M: 3/4
L: 1/8
K: C
% - - - - - - - - - - - - - - - - - - - - - - - - - - - - -
% Voice 1 formatted for a US-letter/A4 page size.
V: 1
|:\
g4ec | c2TB2c2 | Aagfed | d/c/B/c/ B2z2 |\
g4ec | c2TB2c2 | G2 {de}[f2d2][e2c2] | T[e2c2]d2z2 ::\
d4ec | Bgfedc |
d4ec | {c}B2ABG2 |\
AFAcBd | cGcedf | (3(edc) (3(fed) gc | edcBAG |\
GBdf e2 | dgBdcc' | (3{b}agf e2Td2 | c6 :|
% - - - - - - - - - - - - - - - - - - - - - - - - - - - - -
% Voice 2 preserves the original staff breaks.
V: 2 clef=bass middle=d
|:\
c2e2c2 | g2f2e2 | f4^f2 | g3^fed | c2e2c2 | g2f2e2 | G4c2 | g4G2 :: G2B2c2 |
G6 | G2B2c2 | g2d2G2 | f6 | e4B2 | c2d2e2 | g6 | G2B2c2 | g2f2e2 | f2g2G2 | c6 :|
% - - - - - - - - - - - - - - - - - - - - - - - - - - - - -

%%sep 1 1 500
%%sep 1 1 500
